assets/img/arrows-left.svg

<svg fill="none" height="23" viewBox="0 0 56 23" width="56" xmlns="http://www.w3.org/2000/svg"><g fill="#ff903f"><path d="m46.0971.536029 9.036.000001-13.608 9.82797-9.072.036zm0 21.707971-13.644-9.828h9.072l13.608 9.864z"/><path d="m13.7041.536026 9.036.000001-13.60801 9.827973-9.0719999.036zm0 21.707974-13.64401-9.828h9.072l13.60801 9.864z"/></g></svg>

<svg width="56" height="23" viewBox="0 0 56 23" fill="none" xmlns="http://www.w3.org/2000/svg">
<g style="mix-blend-mode:exclusion">
<path d="M46.0971 0.536029L55.1331 0.53603L41.5251 10.364L32.4531 10.4L46.0971 0.536029ZM46.0971 22.244L32.4531 12.416L41.5251 12.416L55.1331 22.28L46.0971 22.244Z" fill="#FF903F"/>
<path d="M13.7041 0.536026L22.7401 0.536027L9.13209 10.364L0.0600901 10.4L13.7041 0.536026ZM13.7041 22.244L0.06009 12.416L9.13209 12.416L22.7401 22.28L13.7041 22.244Z" fill="#FF903F"/>
</g>
</svg>
